img/logo-html-active.svg

<?xml version="1.0" encoding="UTF-8" standalone="no"?>
<svg
   xmlns:dc="http://purl.org/dc/elements/1.1/"
   xmlns:cc="http://creativecommons.org/ns#"
   xmlns:rdf="http://www.w3.org/1999/02/22-rdf-syntax-ns#"
   xmlns:svg="http://www.w3.org/2000/svg"
   xmlns="http://www.w3.org/2000/svg"
   xmlns:sodipodi="http://sodipodi.sourceforge.net/DTD/sodipodi-0.dtd"
   xmlns:inkscape="http://www.inkscape.org/namespaces/inkscape"
   viewBox="0 0 43.491001 54.622967"
   width="43.491001"
   height="54.622967"
   version="1.1"
   id="svg8"
   sodipodi:docname="logo-html.svg"
   inkscape:version="0.92.1 r15371">
  <metadata
     id="metadata14">
    <rdf:RDF>
      <cc:Work
         rdf:about="">
        <dc:format>image/svg+xml</dc:format>
        <dc:type
           rdf:resource="http://purl.org/dc/dcmitype/StillImage" />
        <dc:title></dc:title>
      </cc:Work>
    </rdf:RDF>
  </metadata>
  <defs
     id="defs12" />
  <sodipodi:namedview
     pagecolor="#ffffff"
     bordercolor="#666666"
     borderopacity="1"
     objecttolerance="10"
     gridtolerance="10"
     guidetolerance="10"
     inkscape:pageopacity="0"
     inkscape:pageshadow="2"
     inkscape:window-width="1920"
     inkscape:window-height="1017"
     id="namedview10"
     showgrid="false"
     fit-margin-top="0"
     fit-margin-left="0"
     fit-margin-right="0"
     fit-margin-bottom="0"
     inkscape:zoom="4.7204969"
     inkscape:cx="132.30186"
     inkscape:cy="18.142152"
     inkscape:window-x="-8"
     inkscape:window-y="-8"
     inkscape:window-maximized="1"
     inkscape:current-layer="svg8" />
  <path
     d="m 1.3954999,3.5029107 20.4000001,-2.1 20.3,2.1 V 41.002911 l -20.3,12 -20.4000001,-12 z"
     id="path2"
     inkscape:connector-curvature="0"
     style="fill:none;stroke:#aaa;stroke-width:2.79099989" />
  <path
     d="M 1.6954999,20.902911 21.0955,9.6029107 l 20.9,11.3000003 v 1.2 l -20.2,11.9 -20.1000001,-11.9 z"
     id="path4"
     inkscape:connector-curvature="0"
     style="fill:none;stroke:#aaa;stroke-width:2.05699992" />
  <path
     d="m 21.7955,32.802911 2.9,-1.9 -2.9,-1.9 v -1.9 l 4.7,2.8 1.5,-0.9 -6.2,-3.7 v -2.2 l 7.9,4.8 1.6,-0.9 -9.5,-5.9 v -2.1 l 12.9,7.9 v 8.4 l -12.9,7.8 -13.1000001,-7.6 v -2.2 l 13.1000001,7.9 v -2.1 l -13.1000001,-7.7 v -1.9 l 13.1000001,7.6 z"
     id="path6"
     inkscape:connector-curvature="0"
     style="fill:#aaa"
     sodipodi:nodetypes="ccccccccccccccccccccccc" />
</svg>

<svg xmlns="http://www.w3.org/2000/svg" viewBox="0 0 161 55" width="161" height="55"><path d="M1.4 3.5l20.4-2.1 20.3 2.1V41L21.8 53 1.4 41V3.5z" fill="none" stroke="#B0B0B0" stroke-width="2.791"/><path d="M1.7 20.9L21.1 9.6 42 20.9v1.2L21.8 34 1.7 22.1v-1.2z" fill="none" stroke="#B0B0B0" stroke-width="2.057"/><path d="M21.8 32.8l2.9-1.9-2.9-1.9v-1.9l4.7 2.8L28 29l-6.2-3.7v-2.2l7.9 4.8 1.6-.9-9.5-5.9V19l12.9 7.9v8.4l-12.9 7.8-13.1-7.6v-2.2l13.1 7.9v-2.1L8.7 31.4v-1.9l13.1 7.6v-4.3zm44.9 7.1c.3 0 .6-.1.8-.2v2c-.6.2-1.2.3-1.8.3-1.1 0-2-.4-2.5-1.5-1.2 1-2.7 1.6-4.7 1.6-2.3 0-4.4-1.2-4.4-3.8 0-3.2 3-4.2 5.5-4.2 1.1 0 2.2.1 3.2.4v-.4c0-1.6-1.1-2.6-3.3-2.6-1.5 0-3.1.3-4.5 1V30c1.5-.5 3.1-.8 4.8-.8 3.5 0 5.8 1.7 5.8 5.4V39c.1.7.6.9 1.1.9M57 38.2c0 1.2 1.1 1.8 2.3 1.8 1.3 0 2.6-.5 3.6-1.5v-2.1c-.9-.2-1.8-.3-2.7-.3-1.5.1-3.2.6-3.2 2.1m18.5-9.1c1.4 0 2.7.3 3.8 1v2.5c-.9-.6-2.2-1-3.4-1-2.2 0-4.4 1.2-4.4 4.1 0 2.8 2.2 4.1 4.4 4.1 1.3 0 2.5-.3 3.6-1v2.6c-1.2.6-2.5.9-4.1.9-3.3 0-6.7-2-6.7-6.5-.1-4.7 3.5-6.7 6.8-6.7m18.1 10.8c.3 0 .6-.1.8-.2v2c-.6.2-1.2.3-1.8.3-1.1 0-2-.4-2.5-1.5-1.2 1-2.7 1.6-4.7 1.6-2.3 0-4.4-1.2-4.4-3.8 0-3.2 3-4.2 5.5-4.2 1.1 0 2.2.1 3.2.4v-.4c0-1.6-1.1-2.6-3.3-2.6-1.5 0-3.1.3-4.5 1V30c1.5-.5 3.1-.8 4.8-.8 3.5 0 5.8 1.7 5.8 5.4V39c.2.7.6.9 1.1.9M84 38.2c0 1.2 1.1 1.8 2.3 1.8 1.3 0 2.6-.5 3.6-1.5v-2.1c-.9-.2-1.8-.3-2.7-.3-1.5.1-3.2.6-3.2 2.1m25-14.5v18.1h-2.5v-2c-1 1.2-2.4 2.3-4.8 2.3-3.8 0-6.2-3-6.2-6.6s2.4-6.6 6.2-6.6c2.2 0 3.6 1 4.5 1.9v-7.3h2.8v.2zm-6.7 7.8c-2.2 0-3.9 1.7-3.9 4.1s1.6 4.1 3.9 4.1c1.7 0 3.3-1 4-2.6v-3c-.7-1.6-2.3-2.6-4-2.6m15.7-2.4c4.9 0 6.7 4 5.9 7.6h-9.4c.3 2.2 2.5 3.2 4.8 3.2 1.4 0 2.7-.3 3.9-.9v2.4c-1.1.5-2.7.9-4.5.9-3.8 0-7.1-2.2-7.1-6.6.1-4.6 3.5-6.6 6.4-6.6m.2 2.3c-1.9 0-3.5 1.1-3.7 3.2h6.9c.1-1.1-.5-3.2-3.2-3.2m8.5 10.5V29.4h2.5V31c.7-.8 2.1-1.9 4.1-1.9 1.9 0 3.2.8 3.9 2 1.1-1.1 2.5-2 4.4-2 3.3 0 4.7 2.4 4.7 5v7.8h-2.8v-7.7c0-1.6-1-2.6-2.5-2.6-1.4 0-2.4.9-3.1 1.7 0 .3.1.6.1.9V42h-2.8v-7.7c0-1.6-1-2.6-2.5-2.6s-2.6 1.1-3.3 1.9V42l-2.7-.1zm31.8-12.5h2.9l-5.8 14.1c-1.3 3.2-3.1 4.3-5 4.3-.6 0-1.1-.1-1.6-.2v-2.4c.4.1.8.2 1.3.2 1.3 0 2.4-1 3.1-2.9l.3-.6-5.9-12.5h3l4.2 9.4 3.5-9.4zM57.9 1.9V9c1.1-1.1 2.5-1.7 4-1.7 3.1 0 5.1 2.1 5.1 5.1v7.7h-2.8v-7.3c0-2-1.2-3-2.9-3-1.6 0-2.8 1.1-3.5 2.1v8.2H55V1.9h2.9zm16.7 1.3v4.4h4.5V10h-4.5v5.7c0 1.6.8 2.2 2.4 2.2.9 0 1.7-.2 2.5-.5v2.4c-1.1.4-2.2.6-3.3.5-2.4 0-4.3-1.2-4.3-4.1V10h-2.2V7.6h2.2V3.9l2.7-.7zm8 16.9V7.6h2.5v1.6c.7-.7 2.1-1.9 4.1-1.9 1.9 0 3.2.8 3.9 2 1.1-1.1 2.5-2 4.4-2 3.3 0 4.7 2.4 4.7 5v7.8h-2.8v-7.7c0-1.6-1-2.6-2.5-2.6-1.4 0-2.4.9-3.1 1.7 0 .3.1.6.1.9v7.8h-2.8v-7.7c0-1.6-1-2.6-2.5-2.6S86 11 85.3 11.8v8.4l-2.7-.1zm23.7-18.2h2.8V20h-2.8V1.9z" fill="#B0B0B0"/></svg>
